svg/map/hours_line.svg

<?xml version="1.0" encoding="UTF-8"?>
<svg width="24px" height="24px" viewBox="0 0 24 24" version="1.1" xmlns="http://www.w3.org/2000/svg" xmlns:xlink="http://www.w3.org/1999/xlink">
    <title>hours_line</title>
    <g id="Icon" stroke="none" stroke-width="1" fill="none" fill-rule="evenodd">
        <g id="Map" transform="translate(-624.000000, -96.000000)" fill-rule="nonzero">
            <g id="hours_line" transform="translate(624.000000, 96.000000)">
                <path d="M24,0 L24,24 L0,24 L0,0 L24,0 Z M12.5935,23.2578 L12.5819,23.2595 L12.5109,23.295 L12.4919,23.2987 L12.4767,23.295 L12.4057,23.2595 C12.3958,23.2564 12.387,23.259 12.3821,23.2649 L12.378,23.2758 L12.3609,23.7031 L12.3659,23.7235 L12.3769,23.7357 L12.4805,23.8097 L12.4953,23.8136 L12.5071,23.8097 L12.6107,23.7357 L12.6233,23.7197 L12.6267,23.7031 L12.6096,23.2758 C12.6076,23.2657 12.601,23.2593 12.5935,23.2578 Z M12.8584,23.1453 L12.8445,23.1473 L12.6598,23.2397 L12.6499,23.2499 L12.6472,23.2611 L12.6651,23.6906 L12.6699,23.7034 L12.6784,23.7105 L12.8793,23.8032 C12.8914,23.8069 12.9022,23.803 12.9078,23.7952 L12.9118,23.7812 L12.8777,23.1665 C12.8753,23.1546 12.8674,23.147 12.8584,23.1453 Z M12.143,23.1473 C12.1332,23.1424 12.1222,23.1453 12.1156,23.1526 L12.1099,23.1665 L12.0758,23.7812 C12.0751,23.7927 12.0828,23.8019 12.0926,23.8046 L12.1083,23.8032 L12.3092,23.7105 L12.3186,23.7024 L12.3225,23.6906 L12.3404,23.2611 L12.3372,23.2485 L12.3278,23.2397 L12.143,23.1473 Z" id="MingCute"></path>
                <path d="M18.2425,14.0299 C18.7783,14.1638 19.1041,14.7067 18.9701,15.2425 L18.2808,18 L19,18 L19,17 C19,16.4477 19.4477,16 20,16 C20.5523,16 21,16.4477 21,17 L21,18 C21.5523,18 22,18.4477 22,19 C22,19.5523 21.5523,20 21,20 L21,21 C21,21.5523 20.5523,22 20,22 C19.4477,22 19,21.5523 19,21 L19,20 L17,20 C16.6921,20 16.4013,19.8581 16.2118,19.6154 C16.0223,19.3727 15.9552,19.0562 16.0299,18.7575 L17.0299,14.7575 C17.1638,14.2217 17.7067,13.8959 18.2425,14.0299 Z M13.5,14 C14.825472,14 15.9100378,15.0315469 15.9946823,16.3356256 L16,16.5 L16,16.8249 C16,17.4243667 15.8094222,18.0062136 15.4588181,18.487706 L15.3199,18.6634 L14.1742,20 L15,20 C15.5523,20 16,20.4477 16,21 C16,21.51285 15.613973,21.9355092 15.1166239,21.9932725 L15,22 L12,22 C11.6095,22 11.2547,21.7727 11.0915,21.4179 C10.9464333,21.1025222 10.976379,20.7376827 11.1632871,20.4522594 L11.2407,20.3492 L13.8014,17.3618 C13.90396,17.2422 13.969528,17.09636 13.9916528,16.9419952 L14,16.8249 L14,16.5 C14,16.2239 13.7761,16 13.5,16 C13.2239,16 13,16.2239 13,16.5 C13,17.0523 12.5523,17.5 12,17.5 C11.4477,17.5 10.9999884,17.0523 10.9999884,16.5 C10.9999884,15.1193 12.1193,14 13.5,14 Z M12,3 C16.195,3 19.7174,5.86919 20.7164,9.75074 C20.8541,10.2856 20.5321,10.8308 19.9972,10.9684 C19.4624,11.1061 18.9172,10.7841 18.7795,10.2493 C18.0024,7.2299 15.2603,5 12,5 C8.13401,5 5,8.13401 5,12 C5,14.5897 6.40581,16.8523 8.50073,18.0641 C8.97879,18.3407 9.14215,18.9524 8.86561,19.4305 C8.58906,19.9085 7.97733,20.0719 7.49927,19.7953 C4.81178,18.2407 3,15.3325 3,12 C3,7.02944 7.02944,3 12,3 Z M12,7 C12.51285,7 12.9355092,7.38604429 12.9932725,7.88337975 L13,8 L13,12 C13,12.51285 12.613973,12.9355092 12.1166239,12.9932725 L12,13 L10,13 C9.44772,13 9,12.5523 9,12 C9,11.48715 9.38604429,11.0644908 9.88337975,11.0067275 L10,11 L11,11 L11,8 C11,7.44772 11.4477,7 12,7 Z" id="形状" fill="#09244B"></path>
            </g>
        </g>
    </g>
</svg>

<svg xmlns="http://www.w3.org/2000/svg" width="24" height="24"><g fill="none" fill-rule="nonzero"><path d="M24 0v24H0V0h24ZM12.594 23.258l-.012.002-.071.035-.02.004-.014-.004-.071-.036c-.01-.003-.019 0-.024.006l-.004.01-.017.428.005.02.01.013.104.074.015.004.012-.004.104-.074.012-.016.004-.017-.017-.427c-.002-.01-.009-.017-.016-.018Zm.264-.113-.014.002-.184.093-.01.01-.003.011.018.43.005.012.008.008.201.092c.012.004.023 0 .029-.008l.004-.014-.034-.614c-.003-.012-.01-.02-.02-.022Zm-.715.002a.023.023 0 0 0-.027.006l-.006.014-.034.614c0 .012.007.02.017.024l.015-.002.201-.093.01-.008.003-.011.018-.43-.003-.012-.01-.01-.184-.092Z"/><path fill="#09244B" d="M18.243 14.03a1 1 0 0 1 .727 1.213L18.28 18H19v-1a1 1 0 1 1 2 0v1a1 1 0 1 1 0 2v1a1 1 0 1 1-2 0v-1h-2a1 1 0 0 1-.97-1.242l1-4a1 1 0 0 1 1.212-.728ZM13.5 14a2.5 2.5 0 0 1 2.495 2.336L16 16.5v.325c0 .6-.19 1.181-.541 1.663l-.14.175L14.175 20H15a1 1 0 0 1 .117 1.993L15 22h-3a1 1 0 0 1-.837-1.548l.078-.103 2.56-2.987a.825.825 0 0 0 .19-.42l.009-.117V16.5a.5.5 0 0 0-1 0 1 1 0 1 1-2 0 2.5 2.5 0 0 1 2.5-2.5ZM12 3c4.195 0 7.717 2.87 8.716 6.75a1 1 0 1 1-1.937.5A7 7 0 1 0 8.5 18.064a1 1 0 0 1-1 1.73A9 9 0 0 1 12 3Zm0 4a1 1 0 0 1 .993.883L13 8v4a1 1 0 0 1-.883.993L12 13h-2a1 1 0 0 1-.117-1.993L10 11h1V8a1 1 0 0 1 1-1Z"/></g></svg>
